svgs/sharp-regular/ballot.svg

<svg xmlns="http://www.w3.org/2000/svg" viewBox="0 0 448 512"><!--! Font Awesome Pro 6.6.0 by @fontawesome - https://fontawesome.com License - https://fontawesome.com/license (Commercial License) Copyright 2024 Fonticons, Inc. --><path d="M400 48l0 416L48 464 48 48l352 0zM48 0L0 0 0 48 0 464l0 48 48 0 352 0 48 0 0-48 0-416 0-48L400 0 48 0zM80 96l0 64 64 0 0-64L80 96zm64 128l-64 0 0 64 64 0 0-64zM80 352l0 64 64 0 0-64-64 0zM200 104l-24 0 0 48 24 0 144 0 24 0 0-48-24 0-144 0zm0 128l-24 0 0 48 24 0 144 0 24 0 0-48-24 0-144 0zm0 128l-24 0 0 48 24 0 144 0 24 0 0-48-24 0-144 0z"/></svg>

<svg xmlns="http://www.w3.org/2000/svg" viewBox="0 0 448 512"><!--! Font Awesome Pro 6.4.2 by @fontawesome - https://fontawesome.com License - https://fontawesome.com/license (Commercial License) Copyright 2023 Fonticons, Inc. --><path d="M400 48V464H48V48H400zM48 0H0V48 464v48H48 400h48V464 48 0H400 48zM80 96v64h64V96H80zm64 128H80v64h64V224zM80 352v64h64V352H80zM200 104H176v48h24H344h24V104H344 200zm0 128H176v48h24H344h24V232H344 200zm0 128H176v48h24H344h24V360H344 200z"/></svg>
